icons/1_Primary/ComputerBase.svg

<svg xmlns="http://www.w3.org/2000/svg" width="1024" height="1024" fill="none">
   <g clip-path="url(#a)">
      <path fill="#728DBE" d="M512 1024c282.77 0 512-229.23 512-512S794.77 0 512 0 0 229.23 0 512s229.23 512 512 512Z"/>
      <path fill="#fff" d="M466.07 588.08a276.288 276.288 0 0 1-29.12 7c-9.12 1.6-21.92 2.4-38 2.4-43.92 0-78.4-11.12-102.48-33.12-24.24-22-36.56-53.92-36.56-94.8a231.588 231.588 0 0 1 15.84-87 208.543 208.543 0 0 1 43.52-67.6 191.821 191.821 0 0 1 65-43.28A207.7 207.7 0 0 1 463.75 256a267.217 267.217 0 0 1 62 6.88 193.585 193.585 0 0 1 52 20.32 4.994 4.994 0 0 1 2.32 5.36L561.34 366a4.879 4.879 0 0 1-4.72 3.68h-9.36a4.797 4.797 0 0 1-3.52-1.52c-13-14.08-26.16-24.56-39-31.12-12.56-6.48-27.68-9.76-44.88-9.76a90.871 90.871 0 0 0-74.56 36.48c-19.68 24.56-29.68 56.48-29.68 94.72 0 24 5.2 41.52 15.6 51.92 10.4 10.4 26 15.76 46.4 15.76a126.015 126.015 0 0 0 53.12-11.44 230.095 230.095 0 0 0 47.8-29.72 5.2 5.2 0 0 1 3-1h8.48a4.724 4.724 0 0 1 3.84 1.84 5.124 5.124 0 0 1 .88 4.16l-18.56 76.32a4.718 4.718 0 0 1-2.88 3.36L491.1 579a213.947 213.947 0 0 1-25.03 9.08Zm281-20.72a94.074 94.074 0 0 1-39.76 26.48A79.667 79.667 0 0 1 736.94 613c9.68 10.32 14.64 24.8 14.64 43.2a95.36 95.36 0 0 1-43.12 82.72c-28 19.28-68 29.12-118.72 29.12H452.39a4.858 4.858 0 0 1-3.76-1.92 4.924 4.924 0 0 1-1-4.16l39-170.48 9-3.68c8.64-3.68 15.92-6.72 22.08-9.2a14.562 14.562 0 0 0 8.72-10.08l18.56-76.32a14.542 14.542 0 0 0-2.588-12.463A14.555 14.555 0 0 0 531 474.08h-8.48a14.399 14.399 0 0 0-9.76 3.76l8.08-35.12a4.88 4.88 0 0 1 4.72-3.76h115.78c39 0 69.28 6.64 90.16 19.68a64.472 64.472 0 0 1 32.56 57.44A77.595 77.595 0 0 1 747 567.36h.07Zm-88.37 90.88c0-9.92-3.52-16.88-10.8-21.2-8-4.72-21.12-7.12-39-7.12h-39l-16 69.84h35.2c22.8 0 40.48-3.76 52.56-11.12 11.44-6.96 17.04-16.96 17.04-30.4Zm9.12-129.12c0-7.68-2.8-12.88-8.64-16.24-6.56-3.76-16.08-5.68-28.24-5.68H598L584.7 565h31.2c16.8 0 29.92-3.2 39-9.52 8.68-5.96 12.92-14.6 12.92-26.36Z"/>
   </g>
   <defs>
      <clipPath id="a">
         <path fill="#fff" d="M0 0h1024v1024H0z"/>
      </clipPath>
   </defs>
</svg>

<svg width="1024" height="1024" viewBox="0 0 1024 1024" fill="none" xmlns="http://www.w3.org/2000/svg">
<g clip-path="url(#clip0_2_1878)">
<path d="M512 1024C794.77 1024 1024 794.77 1024 512C1024 229.23 794.77 0 512 0C229.23 0 0 229.23 0 512C0 794.77 229.23 1024 512 1024Z" fill="#728DBE"/>
<path d="M466.07 588.08C456.497 590.938 446.776 593.275 436.95 595.08C427.83 596.68 415.03 597.48 398.95 597.48C355.03 597.48 320.55 586.36 296.47 564.36C272.23 542.36 259.91 510.44 259.91 469.56C259.553 439.811 264.931 410.273 275.75 382.56C285.735 357.417 300.516 334.457 319.27 314.96C337.74 296.229 359.865 281.497 384.27 271.68C409.478 261.287 436.485 255.959 463.75 256C484.615 255.865 505.423 258.174 525.75 262.88C543.974 267.105 561.49 273.95 577.75 283.2C578.65 283.737 579.358 284.544 579.774 285.506C580.191 286.468 580.294 287.536 580.07 288.56L561.34 366C561.074 367.05 560.465 367.982 559.611 368.648C558.756 369.315 557.704 369.677 556.62 369.68H547.26C546.601 369.682 545.948 369.548 545.342 369.286C544.736 369.025 544.191 368.641 543.74 368.16C530.74 354.08 517.58 343.6 504.74 337.04C492.18 330.56 477.06 327.28 459.86 327.28C445.428 327.002 431.138 330.166 418.172 336.51C405.206 342.854 393.938 352.195 385.3 363.76C365.62 388.32 355.62 420.24 355.62 458.48C355.62 482.48 360.82 500 371.22 510.4C381.62 520.8 397.22 526.16 417.62 526.16C435.948 526.255 454.076 522.351 470.74 514.72C487.83 506.807 503.883 496.825 518.54 485C519.412 484.363 520.461 484.014 521.54 484H530.02C530.76 483.984 531.493 484.143 532.16 484.462C532.827 484.782 533.409 485.254 533.86 485.84C534.296 486.43 534.601 487.106 534.753 487.824C534.904 488.542 534.9 489.284 534.74 490L516.18 566.32C516.011 567.073 515.661 567.772 515.158 568.358C514.656 568.944 514.018 569.398 513.3 569.68L491.1 579C482.954 582.543 474.594 585.576 466.07 588.08ZM747.07 567.36C736.316 579.461 722.621 588.581 707.31 593.84C718.495 597.932 728.62 604.479 736.94 613C746.62 623.32 751.58 637.8 751.58 656.2C752.079 672.527 748.376 688.708 740.826 703.192C733.275 717.677 722.131 729.979 708.46 738.92C680.46 758.2 640.46 768.04 589.74 768.04H452.39C451.66 768.023 450.942 767.842 450.291 767.509C449.64 767.177 449.072 766.702 448.63 766.12C448.161 765.546 447.828 764.874 447.654 764.154C447.481 763.434 447.473 762.684 447.63 761.96L486.63 591.48L495.63 587.8C504.27 584.12 511.55 581.08 517.71 578.6C519.861 577.735 521.775 576.369 523.291 574.616C524.808 572.863 525.884 570.773 526.43 568.52L544.99 492.2C545.531 490.062 545.58 487.83 545.131 485.671C544.683 483.512 543.75 481.483 542.402 479.737C541.054 477.992 539.328 476.576 537.353 475.596C535.377 474.616 533.205 474.097 531 474.08H522.52C518.911 474.066 515.427 475.407 512.76 477.84L520.84 442.72C521.091 441.655 521.693 440.705 522.549 440.023C523.405 439.341 524.466 438.966 525.56 438.96H641.34C680.34 438.96 710.62 445.6 731.5 458.64C741.601 464.391 749.959 472.765 755.69 482.876C761.422 492.987 764.314 504.46 764.06 516.08C764.702 534.665 758.648 552.863 747 567.36H747.07ZM658.7 658.24C658.7 648.32 655.18 641.36 647.9 637.04C639.9 632.32 626.78 629.92 608.9 629.92H569.9L553.9 699.76H589.1C611.9 699.76 629.58 696 641.66 688.64C653.1 681.68 658.7 671.68 658.7 658.24ZM667.82 529.12C667.82 521.44 665.02 516.24 659.18 512.88C652.62 509.12 643.1 507.2 630.94 507.2H598L584.7 565H615.9C632.7 565 645.82 561.8 654.9 555.48C663.58 549.52 667.82 540.88 667.82 529.12Z" fill="white"/>
</g>
<defs>
<clipPath id="clip0_2_1878">
<rect width="1024" height="1024" fill="white"/>
</clipPath>
</defs>
</svg>
